icons/shopping-bag-two-color.svg

<?xml version="1.0" encoding="UTF-8"?><svg xmlns="http://www.w3.org/2000/svg" viewBox="0 0 50 50"><g id="uuid-c678dc46-7696-4ba7-9f6b-d42eb02c8769"><g><path d="M42.88,16.18l-33.8,.02-3.72,33.46H47.2l-4.33-33.48Zm-25.27,5.72c-.83,0-1.5-.67-1.5-1.5s.67-1.5,1.5-1.5,1.5,.67,1.5,1.5-.67,1.5-1.5,1.5Zm14.35,0c-.83,0-1.5-.67-1.5-1.5s.67-1.5,1.5-1.5,1.5,.67,1.5,1.5-.67,1.5-1.5,1.5Z" fill="#ffcd00"/><g><path d="M42.31,14.11c-.03-.25-.24-.44-.5-.44h-2.39l3.05-5.83c.13-.24,.03-.55-.21-.67L29.33,.4c-.12-.06-.25-.07-.38-.03-.13,.04-.23,.13-.29,.25l-4.11,7.86h-2.57l-1.33-5.98c-.03-.13-.11-.24-.22-.31s-.25-.1-.38-.07l-11.05,2.47c-.27,.06-.44,.33-.38,.6l1.9,8.52h-3.38c-.25,0-.47,.19-.5,.45L2.8,48.6c-.02,.14,.03,.28,.12,.39s.23,.17,.37,.17H46.27c.14,0,.28-.06,.38-.17,.1-.11,.14-.25,.12-.39l-4.46-34.48ZM3.85,48.15L7.57,14.69l33.8-.02,4.33,33.48H3.85ZM19.77,3.2l1.18,5.28h-1.82c-.28,0-.5,.22-.5,.5v4.71h-7.09l-1.84-8.24,10.08-2.25Zm21.59,4.63l-3.06,5.85h-7.35v-4.7c0-.28-.22-.5-.5-.5h-4.78l3.64-6.96,12.05,6.31Zm-11.41,1.65v4.21h-10.33v-4.21h10.33Z"/><path d="M31.95,17.9c-1.38,0-2.5,1.12-2.5,2.5,0,1.21,.86,2.22,2,2.45v9.31c-.05,1.84-.83,3.55-2.19,4.82-1.33,1.23-3.01,1.88-4.77,1.8-3.48-.15-6.29-3.05-6.39-6.6v-9.32c1.14-.23,2-1.24,2-2.45,0-1.38-1.12-2.5-2.5-2.5s-2.5,1.12-2.5,2.5c0,1.21,.86,2.22,2,2.45v9.34c.11,4.09,3.34,7.42,7.34,7.59,.11,0,.21,0,.32,0,1.91,0,3.73-.73,5.18-2.07,1.56-1.45,2.45-3.41,2.51-5.54v-9.32c1.14-.23,2-1.24,2-2.45,0-1.38-1.12-2.5-2.5-2.5Zm-15.84,2.5c0-.83,.67-1.5,1.5-1.5s1.5,.67,1.5,1.5-.67,1.5-1.5,1.5-1.5-.67-1.5-1.5Zm15.84,1.5c-.83,0-1.5-.67-1.5-1.5s.67-1.5,1.5-1.5,1.5,.67,1.5,1.5-.67,1.5-1.5,1.5Z"/></g></g></g><g id="uuid-cb8a2fce-c4f7-48e6-ae79-91ddc2c11d0a"><text transform="translate(0 55.07)" font-family="Roboto-Regular, Roboto" font-size="6"><tspan x="0" y="0">shopping-bag</tspan></text></g></svg>

<svg xmlns="http://www.w3.org/2000/svg" viewBox="0 0 50 50"><g id="e4e8a836-b164-4d03-97de-8a8313c1a94b" data-name="ICONS"><path d="M42.88,16.18H9.08L5.36,49.65H47.2ZM17.61,21.89a1.5,1.5,0,1,1,1.5-1.5A1.5,1.5,0,0,1,17.61,21.89Zm14.34,0a1.5,1.5,0,1,1,1.5-1.5A1.5,1.5,0,0,1,32,21.89Z" fill="#fdd600"/><path d="M42.31,14.11a.5.5,0,0,0-.5-.43H39.43l3-5.83a.51.51,0,0,0-.22-.68L29.33.4a.51.51,0,0,0-.68.21L24.54,8.48H22l-1.34-6a.47.47,0,0,0-.22-.31A.48.48,0,0,0,20,2.11L9,4.58a.5.5,0,0,0-.38.59l1.9,8.52H7.13a.51.51,0,0,0-.5.45L2.8,48.6a.51.51,0,0,0,.12.39.53.53,0,0,0,.38.16h43a.48.48,0,0,0,.37-.17.46.46,0,0,0,.12-.39Zm-38.46,34L7.57,14.69h33.8L45.7,48.15ZM19.77,3.2l1.17,5.28H19.12a.5.5,0,0,0-.5.5v4.71H11.53L9.69,5.45ZM41.36,7.83,38.3,13.68H30.94V9a.5.5,0,0,0-.5-.5H25.67l3.63-7ZM29.94,9.48v4.2H19.62V9.48Z" fill="#231f20"/><path d="M32,17.9a2.5,2.5,0,0,0-.5,4.94v9.31A6.76,6.76,0,0,1,29.27,37a6.51,6.51,0,0,1-4.78,1.8,6.75,6.75,0,0,1-6.38-6.6V22.84a2.5,2.5,0,1,0-1,0v9.34a7.76,7.76,0,0,0,7.34,7.59h.32A7.56,7.56,0,0,0,30,37.7a7.82,7.82,0,0,0,2.5-5.53V22.84A2.49,2.49,0,0,0,32,17.9ZM16.11,20.39a1.5,1.5,0,1,1,1.5,1.5A1.5,1.5,0,0,1,16.11,20.39ZM32,21.89a1.5,1.5,0,1,1,1.5-1.5A1.5,1.5,0,0,1,32,21.89Z" fill="#231f20"/></g><g id="b1a6566b-f439-4fca-b634-a2ca1a637ade" data-name="LABELS"><text transform="translate(0 55.07)" font-size="6" fill="#231f20" font-family="Roboto-Regular, Roboto">shopping-bag</text></g></svg>
